third_party/noto/noto_2/emoji_u1f238.svg

<svg enable-background="new 0 0 128 128" version="1.1" viewBox="0 0 128 128" xmlns="http://www.w3.org/2000/svg"><path d="m116 4h-104c-4.42 0-8 3.58-8 8v104c0 4.42 3.58 8 8 8h104c4.42 0 8-3.58 8-8v-104c0-4.42-3.58-8-8-8z" fill="#F77E00"/><path d="m109.7 4h-98.2c-4.13 0.03-7.47 3.37-7.5 7.5v97.9c-0.01 4.14 3.34 7.49 7.48 7.5h0.02 98.1c4.14 0.01 7.49-3.34 7.5-7.48v-0.02-97.9c0.09-4.05-3.13-7.41-7.18-7.5h-0.22z" fill="#FF9800"/><path d="m39.7 12.9c0-2.3-1.6-3-10.8-2.7-7.7 0.3-11.5 1.2-13.8 4s-2.9 8.5-3 15.3c0 4.8 0 9.3 2.5 9.3 3.4 0 3.4-7.9 6.2-12.3 5.4-8.7 18.9-10.6 18.9-13.6z" enable-background="new" fill="#FFBD52" opacity=".75"/><path d="m103.4 33.1v53.3c0 1.1-0.9 2-2 2h-5.6c-1.1 0-2-0.9-2-2v-1c0-1.1-0.9-2-2-2h-21.5c-1.1 0-2 0.9-2 2v22.6c0 1.1-0.9 2-2 2h-5.6c-1.1 0-2-0.9-2-2v-22.6c0-1.1-0.9-2-2-2h-20.9c-1.1 0-2 0.9-2 2v1.5c0 1.1-0.9 2-2 2h-5.2c-1.1 0-2-0.9-2-2v-53.8c0-1.1 0.9-2 2-2h30c1.1 0 2-0.9 2-2v-9.1c0-1.1 0.9-2 2-2h5.6c1.1 0 2 0.9 2 2v9.1c0 1.1 0.9 2 2 2h31.1c1.1-0.06 2.04 0.79 2.1 1.9v0.1zm-69.6 9v8.5c0 1.1 0.9 2 2 2h20.8c1.1 0 2-0.9 2-2v-8.5c0-1.1-0.9-2-2-2h-20.8c-1.09 0.04-1.96 0.91-2 2zm24.8 30.4v-9.2c0-1.1-0.9-2-2-2h-20.8c-1.1 0-2 0.9-2 2v9.2c0 1.1 0.9 2 2 2h20.8c1.1 0 2-0.9 2-2zm9.7-30.4v8.5c0 1.1 0.9 2 2 2h21.5c1.1 0 2-0.9 2-2v-8.5c0-1.1-0.9-2-2-2h-21.5c-1.1 0-2 0.9-2 2zm25.4 30.4v-9.2c0-1.1-0.9-2-2-2h-21.4c-1.1 0-2 0.9-2 2v9.2c0 1.1 0.9 2 2 2h21.5c1.07-0.05 1.9-0.93 1.9-2z" fill="#FAFAFA"/></svg>

<?xml version="1.0" encoding="utf-8"?>
<!-- Generator: Adobe Illustrator 25.2.3, SVG Export Plug-In . SVG Version: 6.00 Build 0)  -->
<svg version="1.1" id="Layer_2" xmlns="http://www.w3.org/2000/svg" xmlns:xlink="http://www.w3.org/1999/xlink" x="0px" y="0px"
	 viewBox="0 0 128 128" style="enable-background:new 0 0 128 128;" xml:space="preserve">
<g>
	<path style="fill:#F77E00;" d="M116,4H12c-4.42,0-8,3.58-8,8v104c0,4.42,3.58,8,8,8h104c4.42,0,8-3.58,8-8V12
		C124,7.58,120.42,4,116,4z"/>
	<path style="fill:#FF9800;" d="M109.7,4H11.5C7.37,4.03,4.03,7.37,4,11.5v97.9c-0.01,4.14,3.34,7.49,7.48,7.5c0.01,0,0.01,0,0.02,0
		h98.1c4.14,0.01,7.49-3.34,7.5-7.48c0-0.01,0-0.01,0-0.02V11.5c0.09-4.05-3.13-7.41-7.18-7.5C109.85,4,109.77,4,109.7,4z"/>
	<path style="opacity:0.75;fill:#FFBD52;enable-background:new    ;" d="M39.7,12.9c0-2.3-1.6-3-10.8-2.7c-7.7,0.3-11.5,1.2-13.8,4
		s-2.9,8.5-3,15.3c0,4.8,0,9.3,2.5,9.3c3.4,0,3.4-7.9,6.2-12.3C26.2,17.8,39.7,15.9,39.7,12.9z"/>
	<path style="fill:#FAFAFA;" d="M103.4,33.1v53.3c0,1.1-0.9,2-2,2h-5.6c-1.1,0-2-0.9-2-2v-1c0-1.1-0.9-2-2-2H70.3c-1.1,0-2,0.9-2,2
		V108c0,1.1-0.9,2-2,2h-5.6c-1.1,0-2-0.9-2-2V85.4c0-1.1-0.9-2-2-2H35.8c-1.1,0-2,0.9-2,2v1.5c0,1.1-0.9,2-2,2h-5.2
		c-1.1,0-2-0.9-2-2V33.1c0-1.1,0.9-2,2-2h30c1.1,0,2-0.9,2-2V20c0-1.1,0.9-2,2-2h5.6c1.1,0,2,0.9,2,2v9.1c0,1.1,0.9,2,2,2h31.1
		c1.1-0.06,2.04,0.79,2.1,1.9C103.4,33.03,103.4,33.07,103.4,33.1z M33.8,42.1v8.5c0,1.1,0.9,2,2,2h20.8c1.1,0,2-0.9,2-2v-8.5
		c0-1.1-0.9-2-2-2H35.8C34.71,40.14,33.84,41.01,33.8,42.1z M58.6,72.5v-9.2c0-1.1-0.9-2-2-2H35.8c-1.1,0-2,0.9-2,2v9.2
		c0,1.1,0.9,2,2,2h20.8C57.7,74.5,58.6,73.6,58.6,72.5z M68.3,42.1v8.5c0,1.1,0.9,2,2,2h21.5c1.1,0,2-0.9,2-2v-8.5c0-1.1-0.9-2-2-2
		H70.3C69.2,40.1,68.3,41,68.3,42.1z M93.7,72.5v-9.2c0-1.1-0.9-2-2-2H70.3c-1.1,0-2,0.9-2,2v9.2c0,1.1,0.9,2,2,2h21.5
		C92.87,74.45,93.7,73.57,93.7,72.5z"/>
</g>
</svg>
